icons/hand-off.svg

<svg width="24" height="24" viewBox="0 0 24 24" fill="none" xmlns="http://www.w3.org/2000/svg">
<g clip-path="url(#clip0)">
<path fill-rule="evenodd" clip-rule="evenodd" d="M0.292893 0.292893C0.683417 -0.0976311 1.31658 -0.0976311 1.70711 0.292893L23.7071 22.2929C24.0976 22.6834 24.0976 23.3166 23.7071 23.7071C23.3166 24.0976 22.6834 24.0976 22.2929 23.7071L19.2352 20.6495C19.1444 20.7518 19.0503 20.8518 18.9531 20.9492C17.6422 22.2621 15.864 23 14.0094 23H12.0126C11.9668 23 11.921 22.9969 11.8757 22.9906C10.7058 22.8289 9.5858 22.4409 8.60051 21.8488C7.61501 21.2566 6.7846 20.4721 6.18199 19.545C6.16346 19.5165 6.14639 19.487 6.13086 19.4568L3.4662 14.2674C3.08156 13.7006 2.926 13.0077 3.03298 12.3291C3.14442 11.6222 3.53174 10.9881 4.11031 10.5667C4.68894 10.1452 5.41132 9.97107 6.11847 10.0829C6.43793 10.1334 6.74233 10.2404 7.01886 10.3959V8.43308L0.292893 1.70711C-0.0976311 1.31658 -0.0976311 0.683417 0.292893 0.292893ZM9.01886 10.4331V13.5C9.01886 14.0523 8.57115 14.5 8.01886 14.5C8.01205 14.5 8.00526 14.4999 7.99848 14.4998C7.62534 14.5106 7.26125 14.311 7.07936 13.9568L6.22369 12.2903C6.11627 12.1664 5.9685 12.084 5.80607 12.0583C5.62382 12.0295 5.43744 12.0743 5.28787 12.1833C5.13824 12.2923 5.03757 12.4567 5.00858 12.6406C4.97959 12.8245 5.02478 13.0122 5.13386 13.1624C5.16397 13.2039 5.19085 13.2476 5.21426 13.2932L7.8856 18.4957C8.30984 19.1342 8.90242 19.6969 9.63069 20.1345C10.3567 20.5708 11.1941 20.8685 12.0836 21H14.0094C15.3325 21 16.6017 20.4736 17.5377 19.5361C17.6355 19.4382 17.7288 19.3366 17.8175 19.2317L11.474 12.8882C11.3363 12.9596 11.18 13 11.0141 13C10.4619 13 10.0141 12.5523 10.0141 12V11.4284L9.01886 10.4331ZM12.5118 3C12.3803 3 12.2539 3.0523 12.1605 3.14589C12.067 3.23954 12.0141 3.36688 12.0141 3.5V6.01415C12.0141 6.56643 11.5664 7.01415 11.0141 7.01415C10.4619 7.01415 10.0141 6.56643 10.0141 6.01415V5.5C10.0141 5.36689 9.96134 5.23954 9.86784 5.14589C9.77439 5.0523 9.64798 5 9.51651 5C9.46569 5 9.41575 5.00779 9.36814 5.02274C8.84121 5.18815 8.27995 4.89507 8.11454 4.36814C7.94914 3.84121 8.24221 3.27995 8.76914 3.11454C9.00884 3.0393 9.26069 3 9.51651 3C9.69851 3 9.87844 3.01988 10.0534 3.05844C10.1428 2.55982 10.3823 2.09623 10.7451 1.73279C11.2134 1.26377 11.8489 1 12.5118 1C13.1747 1 13.8102 1.26377 14.2784 1.73279C14.6413 2.09623 14.8808 2.55982 14.9702 3.05844C15.1451 3.01988 15.3251 3 15.5071 3C16.17 3 16.8055 3.26377 17.2737 3.73279C17.6366 4.09623 17.8761 4.55982 17.9655 5.05844C18.1404 5.01988 18.3204 5 18.5024 5C19.1653 5 19.8007 5.26378 20.269 5.73279C20.7372 6.20175 21 6.83747 21 7.5V15C21 15.5523 20.5523 16 20 16C19.4477 16 19 15.5523 19 15V7.5C19 7.36688 18.9472 7.23954 18.8537 7.14589C18.7602 7.0523 18.6338 7 18.5024 7C18.3709 7 18.2445 7.0523 18.151 7.14589C18.0575 7.23954 18.0047 7.36689 18.0047 7.5V12C18.0047 12.5523 17.557 13 17.0047 13C16.4524 13 16.0047 12.5523 16.0047 12V5.5C16.0047 5.36689 15.9519 5.23954 15.8584 5.14589C15.765 5.0523 15.6385 5 15.5071 5C15.3756 5 15.2492 5.0523 15.1557 5.14589C15.0622 5.23954 15.0094 5.36688 15.0094 5.5V8.75C15.0094 9.30229 14.5617 9.75 14.0094 9.75C13.4571 9.75 13.0094 9.30229 13.0094 8.75V3.5C13.0094 3.36689 12.9566 3.23954 12.8631 3.14589C12.7697 3.0523 12.6433 3 12.5118 3Z" fill="black"/>
</g>
<defs>
<clipPath id="clip0">
<rect width="24" height="24" fill="white"/>
</clipPath>
</defs>
</svg>

<svg
  width="24"
  height="24"
  viewBox="0 0 24 24"
  xmlns="http://www.w3.org/2000/svg"
>
  <g clip-path="url(#a)">
    <path
      fill-rule="evenodd"
      clip-rule="evenodd"
      d="M.293.293a1 1 0 0 1 1.414 0l22 22a1 1 0 0 1-1.414 1.414l-3.058-3.058A6.986 6.986 0 0 1 14.01 23h-1.996a.994.994 0 0 1-.137-.008A8.671 8.671 0 0 1 8.6 21.849a7.435 7.435 0 0 1-2.419-2.304 1.005 1.005 0 0 1-.051-.088l-2.665-5.19a2.703 2.703 0 0 1 .644-3.7 2.695 2.695 0 0 1 2.909-.171V8.433L.293 1.707a1 1 0 0 1 0-1.414zm8.726 10.14V13.5a1 1 0 0 1-1.02 1 1 1 0 0 1-.92-.543l-.855-1.667a.697.697 0 0 0-1.215.35.702.702 0 0 0 .125.522c.03.042.057.086.08.131l2.672 5.203a5.45 5.45 0 0 0 1.745 1.639 6.66 6.66 0 0 0 2.453.865h1.925a4.986 4.986 0 0 0 3.808-1.768l-6.343-6.344a1 1 0 0 1-1.46-.888v-.572l-.995-.995zM12.512 3a.496.496 0 0 0-.498.5v2.514a1 1 0 1 1-2 0V5.5a.501.501 0 0 0-.497-.5c-.051 0-.101.008-.149.023a1 1 0 0 1-.599-1.908 2.495 2.495 0 0 1 1.284-.057A2.501 2.501 0 0 1 12.512 1a2.496 2.496 0 0 1 2.458 2.058 2.494 2.494 0 0 1 2.304.675 2.5 2.5 0 0 1 .691 1.325 2.494 2.494 0 0 1 2.304.675c.468.469.731 1.104.731 1.767V15a1 1 0 1 1-2 0V7.5a.501.501 0 0 0-.498-.5.497.497 0 0 0-.497.5V12a1 1 0 1 1-2 0V5.5a.501.501 0 0 0-.498-.5.497.497 0 0 0-.498.5v3.25a1 1 0 1 1-2 0V3.5a.501.501 0 0 0-.497-.5z"
    />
  </g>
  <defs>
    <clipPath id="a">
      <rect width="24" height="24" />
    </clipPath>
  </defs>
</svg>
